lib/svgs/wechat.svg

<?xml version="1.0" encoding="UTF-8"?>
<svg width="16px" height="16px" viewBox="0 0 16 16" version="1.1" xmlns="http://www.w3.org/2000/svg" xmlns:xlink="http://www.w3.org/1999/xlink">
    <!-- Generator: sketchtool 51.3 (57544) - http://www.bohemiancoding.com/sketch -->
    <title>brand/wechat</title>
    <desc>Created with sketchtool.</desc>
    <defs></defs>
    <g id="Icons" stroke="none" stroke-width="1" fill="none" fill-rule="evenodd">
        <g id="Web" transform="translate(-195.000000, -1038.000000)" fill="#000000">
            <g id="brand/wechat" transform="translate(195.000000, 1038.000000)">
                <path d="M9.31248,6.16112593 C9.78128,6.00934289 10.28128,5.91821085 10.81248,5.91821085 C11,5.91821085 11.18752,5.94853636 11.37504,5.97886187 C10.87504,3.70087208 8.43744,2 5.65632,2 C2.5312,2 0,4.12605122 0,6.79905016 C0,8.3481392 0.84368,9.65415764 2.24992,10.626129 L1.68752,12.3271566 L3.65632,11.3551852 C4.40624,11.4766428 4.9688,11.6285813 5.65632,11.6285813 C5.84368,11.6285813 6.0312,11.6285813 6.18752,11.5981003 C6.09376,11.2337277 6.0312,10.8387186 6.0312,10.4135394 C6.0312,9.89722824 6.12496,9.38091706 6.28128,8.9252569 C6.78128,7.61908294 7.87504,6.58646059 9.31248,6.16112593 L9.31248,6.16112593 L9.31248,6.16112593 Z M3.65632,5.7662723 C3.28128,5.7662723 2.93744,5.46255069 2.93744,5.06769706 C2.93744,4.70316893 3.28128,4.39944732 3.65632,4.39944732 C4.09376,4.39944732 4.40624,4.70316893 4.40624,5.06769706 C4.40624,5.46255069 4.09376,5.7662723 3.65632,5.7662723 L3.65632,5.7662723 L3.65632,5.7662723 Z M7.68752,4.36912182 C8.09376,4.36912182 8.40624,4.70316893 8.40624,5.09802256 C8.40624,5.49303171 8.09376,5.79675332 7.68752,5.79675332 C7.28128,5.79675332 6.93744,5.49303171 6.93744,5.09802256 C6.93744,4.70316893 7.28128,4.36912182 7.68752,4.36912182 L7.68752,4.36912182 L7.68752,4.36912182 Z M16,10.3528884 C16,8.16587513 13.90624,6.37387102 11.43744,6.25225796 C11.34368,6.25225796 11.24992,6.22193246 11.18752,6.22193246 C8.5,6.22193246 6.37504,8.0747431 6.37504,10.3528884 C6.37504,11.1121147 6.59376,11.8106899 7,12.4182886 C7.84368,13.633175 9.37504,14.4533633 11.18752,14.4533633 C11.75008,14.4533633 12.34368,14.3014248 12.90624,14.1496417 L14.43744,15 L14.0312,13.6028495 C15.15632,12.7523357 16,11.6285813 16,10.3528884 L16,10.3528884 L16,10.3528884 Z M9.65632,9.65415764 C9.34368,9.65415764 9.09376,9.41124257 9.09376,9.07703994 C9.09376,8.77331834 9.34368,8.53040326 9.65632,8.53040326 C9.9688,8.53040326 10.21872,8.77331834 10.21872,9.07703994 C10.21872,9.41124257 9.9688,9.65415764 9.65632,9.65415764 L9.65632,9.65415764 L9.65632,9.65415764 Z M12.75008,9.65415764 C12.43744,9.65415764 12.18752,9.41124257 12.18752,9.07703994 C12.18752,8.77331834 12.43744,8.53040326 12.75008,8.53040326 C13.09376,8.53040326 13.34368,8.77331834 13.34368,9.07703994 C13.34368,9.41124257 13.09376,9.65415764 12.75008,9.65415764 L12.75008,9.65415764 L12.75008,9.65415764 Z" id="Shape"></path>
            </g>
        </g>
    </g>
</svg>

<svg xmlns="http://www.w3.org/2000/svg" viewBox="0 0 16 16">
    <path d="M9.312 6.161a4.845 4.845 0 0 1 1.5-.243c.188 0 .376.03.563.06C10.875 3.702 8.437 2 5.656 2 2.531 2 0 4.126 0 6.8c0 1.548.844 2.854 2.25 3.826l-.562 1.701 1.968-.972c.75.122 1.313.274 2 .274.188 0 .375 0 .532-.03a4.653 4.653 0 0 1 .094-2.673 4.613 4.613 0 0 1 3.03-2.765zm-5.656-.395a.717.717 0 0 1-.719-.698c0-.365.344-.669.72-.669.437 0 .75.304.75.669 0 .395-.313.698-.75.698zM7.688 4.37c.406 0 .718.334.718.729a.697.697 0 0 1-.718.699c-.407 0-.75-.304-.75-.699a.75.75 0 0 1 .75-.729zM16 10.353c0-2.187-2.094-3.98-4.563-4.1-.093 0-.187-.031-.25-.031-2.687 0-4.812 1.853-4.812 4.13 0 .76.219 1.459.625 2.066.844 1.215 2.375 2.035 4.188 2.035a6.82 6.82 0 0 0 1.718-.303l1.531.85-.406-1.397c1.125-.85 1.969-1.974 1.969-3.25zm-6.344-.699a.56.56 0 0 1-.562-.577c0-.304.25-.547.562-.547.313 0 .563.243.563.547a.56.56 0 0 1-.563.577zm3.094 0a.56.56 0 0 1-.562-.577c0-.304.25-.547.562-.547.344 0 .594.243.594.547 0 .334-.25.577-.594.577z"/>
</svg>
